packages/icons/assets/Host.svg

<svg xmlns="http://www.w3.org/2000/svg" fill="none" viewBox="0 0 16 16"><g clip-path="url(#Host_svg__Host_svg__Host_svg__Host_svg__clip0_16_20)"><path fill="#414141" d="M6.5809 15.0027H.00100617v-.9973H6.5798c.07488-.2102.19574-.4012.35367-.559.15794-.1578.34906-.2786.55954-.3536v-2.0794H.0000305176L.0150311 0H16l-.014 11.0134H8.49305v2.0794c.21069.0748.40202.1955.56014.3534.15812.1578.27912.3488.35404.5592H15.986v.9973H9.40613c-.10329.2916-.29459.5441-.54758.7227-.25299.1786-.55517.2746-.86504.2746-.30986 0-.61204-.096-.86503-.2746-.25299-.1786-.44429-.4311-.54758-.7227zm.91308-.4987c0 .1323.05267.2591.14635.3526.09368.0935.2207.1461.35318.1461.13249 0 .25951-.0526.35319-.1461.09368-.0935.14635-.2203.14635-.3526.00022-.1272-.04833-.2497-.13562-.3424-.08729-.0927-.20669-.1486-.33392-.1562h-.05902c-.1274.0074-.24702.0631-.33453.1559-.0875.0927-.13619.2153-.13598.3427zM1.01605 9.9732H15.0029V5.98392H1.01605V9.9732zm0-4.9866H15.0029V.99732H1.01605V4.9866zM12.9538 8.47722V7.4799h.9991v.99732h-.9991zm-10.98967 0V7.4799h5.99438v.99732H1.96413zm10.98967-4.9866V2.4933h.9991v.99732h-.9991zm-10.98967 0V2.4933h5.99438v.99732H1.96413z"/></g><defs><clipPath id="Host_svg__Host_svg__Host_svg__Host_svg__clip0_16_20"><path fill="#fff" d="M0 0h16v16H0z"/></clipPath></defs></svg>

<svg width="16" height="16" viewBox="0 0 16 16" fill="none" xmlns="http://www.w3.org/2000/svg">
<g clip-path="url(#clip0_16_20)">
<path d="M6.5809 15.0027H0.00100617V14.0054H6.5798C6.65468 13.7952 6.77554 13.6042 6.93347 13.4464C7.09141 13.2886 7.28253 13.1678 7.49301 13.0928V11.0134H3.05176e-05L0.0150311 0H16L15.986 11.0134H8.49305V13.0928C8.70374 13.1676 8.89507 13.2883 9.05319 13.4462C9.21131 13.604 9.33231 13.795 9.40723 14.0054H15.986V15.0027H9.40613C9.30284 15.2943 9.11154 15.5468 8.85855 15.7254C8.60556 15.904 8.30338 16 7.99351 16C7.68365 16 7.38147 15.904 7.12848 15.7254C6.87549 15.5468 6.68419 15.2943 6.5809 15.0027V15.0027ZM7.49398 14.504C7.49398 14.6363 7.54665 14.7631 7.64033 14.8566C7.73401 14.9501 7.86103 15.0027 7.99351 15.0027C8.126 15.0027 8.25302 14.9501 8.3467 14.8566C8.44038 14.7631 8.49305 14.6363 8.49305 14.504C8.49327 14.3768 8.44472 14.2543 8.35743 14.1616C8.27014 14.0689 8.15074 14.013 8.02351 14.0054H7.96449C7.83709 14.0128 7.71747 14.0685 7.62996 14.1613C7.54246 14.254 7.49377 14.3766 7.49398 14.504ZM1.01605 9.9732H15.0029V5.98392H1.01605V9.9732ZM1.01605 4.9866H15.0029V0.99732H1.01605V4.9866ZM12.9538 8.47722V7.4799H13.9529V8.47722H12.9538ZM1.96413 8.47722V7.4799H7.95851V8.47722H1.96413ZM12.9538 3.49062V2.4933H13.9529V3.49062H12.9538ZM1.96413 3.49062V2.4933H7.95851V3.49062H1.96413Z" fill="#414141"/>
</g>
<defs>
<clipPath id="clip0_16_20">
<rect width="16" height="16" fill="white"/>
</clipPath>
</defs>
</svg>
